sort-numeric-descending.svg

<svg  viewBox="0 0 24 24" fill="currentColor"><path  d="M19 7H22L18 3L14 7H17V21H19M9 21H5V19H9V18H7C5.9 18 5 17.11 5 16V15C5 13.9 5.9 13 7 13H9C10.11 13 11 13.9 11 15V19C11 20.11 10.11 21 9 21M9 15H7V16H9M7 3H9C10.11 3 11 3.9 11 5V9C11 10.11 10.11 11 9 11H7C5.9 11 5 10.11 5 9V5C5 3.9 5.9 3 7 3M7 9H9V5H7Z"/></svg>

<svg fill="currentColor" viewBox="0 0 24 24"><path d="M19 7h3l-4-4-4 4h3v14h2M9 21H5v-2h4v-1H7a2 2 0 0 1-2-2v-1c0-1.1.9-2 2-2h2a2 2 0 0 1 2 2v4c0 1.11-.89 2-2 2m0-6H7v1h2M7 3h2a2 2 0 0 1 2 2v4c0 1.11-.89 2-2 2H7a2 2 0 0 1-2-2V5c0-1.1.9-2 2-2m0 6h2V5H7Z"/></svg>
